img/section4-3-sb24-mobile.svg

<svg fill="none" height="50" viewBox="0 0 35 50" width="35" xmlns="http://www.w3.org/2000/svg"><g fill="#b5bd00"><path d="m14.8433 16.0732h-10.28832c-1.22227.0157-2.38839.5157-3.24233 1.3903-.853954.8747-1.325947 2.0524-1.31236478 3.2747v24.597c-.01358222 1.2223.45841078 2.4001 1.31236478 3.2747.85394.8746 2.02006 1.3746 3.24233 1.3903h10.28832c1.2223-.0157 2.3884-.5157 3.2424-1.3903.8539-.8746 1.3259-2.0524 1.3123-3.2747v-24.597c.0136-1.2223-.4584-2.4-1.3123-3.2747-.854-.8746-2.0201-1.3746-3.2424-1.3903zm-5.13991 2.6548h-2.12043v-.9584h4.24084v.9584zm8.00671 26.6115c.0137.7724-.2796 1.5187-.8154 2.0752s-1.2705.8778-2.0429.8934h-10.29682c-.77202-.0167-1.50603-.3384-2.04163-.8946-.5356-.5563-.82923-1.3019-.81672-2.074v-24.5971c-.01251-.7721.28112-1.5177.81672-2.074.5356-.5562 1.26961-.8779 2.04163-.8946h1.34011v1.8066c0 .225.08936.4407.24843.5998.15906.1591.3748.2484.59975.2484h5.93723c.2249 0 .4407-.0893.5997-.2484.1591-.1591.2485-.3748.2485-.5998v-1.8108h1.3146c.7724.0156 1.5071.3369 2.0429.8934s.8291 1.3028.8155 2.0752z"/><path d="m22.4761 8.05762h-10.2798c-.606.00664-1.2047.13258-1.7619.37062-.55729.23804-1.06221.58352-1.48594 1.01671-.42374.43319-.758.94565-.98369 1.50795-.22569.5624-.33839 1.1637-.33167 1.7697v1.4419c0 .2249.08936.4407.24842.5997.15906.1591.3748.2484.59975.2484s.44069-.0893.59975-.2484c.15906-.159.24842-.3748.24842-.5997v-1.4419c-.01363-.7724.27963-1.5187.81546-2.0752.5358-.5566 1.2705-.87784 2.0429-.89344h1.3359v1.80664c0 .2249.0893.4407.2484.5997.1591.1591.3748.2484.5997.2484h5.9373c.2249 0 .4406-.0893.5997-.2484.1591-.159.2484-.3748.2484-.5997v-1.80664h1.3189c.7728.01561 1.5079.33674 2.0444.89314s.8307 1.3027.8182 2.0755v24.597c.0114.7725-.2832 1.5181-.8195 2.0743-.5362.5561-1.2707.8776-2.0431.8943h-1.3528c-.225 0-.4407.0894-.5998.2484-.159.1591-.2484.3748-.2484.5998 0 .2249.0894.4407.2484.5997.1591.1591.3748.2485.5998.2485h1.3528c.6065-.0061 1.2059-.1316 1.7639-.3694.558-.2377 1.0637-.583 1.4882-1.0162s.7595-.9458.986-1.5085c.2264-.5626.3397-1.1644.3336-1.7709v-24.597c.0061-.6065-.1072-1.2083-.3336-1.771-.2265-.5626-.5615-1.07521-.986-1.50839-.4245-.43319-.9302-.77852-1.4882-1.01626s-1.1574-.36324-1.7639-.36933zm-3.0322 2.65478h-4.2409v-.95844h4.2409z"/><path d="m30.1321 0h-10.2969c-1.2241.0134267-2.3928.512334-3.2493 1.38707-.8564.87474-1.3305 2.05374-1.3181 3.27788v1.62002c0 .22495.0894.44068.2484.59975.1591.15906.3748.24842.5998.24842.2249 0 .4407-.08936.5997-.24842.1591-.15907.2485-.3748.2485-.59975v-1.62002c-.0125-.77209.2811-1.51775.8167-2.07401.5356-.55625 1.2696-.87788 2.0416-.89459h1.3401v1.80661c0 .22495.0894.44068.2484.59975.1591.15906.3748.24842.5998.24842h5.9372c.225 0 .4407-.08936.5998-.24842.159-.15907.2484-.3748.2484-.59975v-1.80661h1.3359c.7723.0156 1.507.33688 2.0428.89338.5359.55651.8291 1.30281.8155 2.07522v24.59705c.0125.7721-.2811 1.5177-.8167 2.074s-1.2696.8779-2.0416.8946h-1.2723c-.2249 0-.4407.0894-.5997.2484-.1591.1591-.2485.3748-.2485.5998 0 .2249.0894.4407.2485.5997.159.1591.3748.2484.5997.2484h1.2723c1.2219-.0167 2.3873-.5171 3.241-1.3915.8538-.8744 1.3261-2.0514 1.3137-3.2734v-24.59705c.0124-1.22196-.4599-2.39905-1.3137-3.27343-.8537-.874375-2.0191-1.3747512-3.241-1.39152zm-3.0323 2.65478h-4.2408v-.95843h4.2408z"/></g></svg>

<svg width="35" height="50" viewBox="0 0 35 50" fill="none" xmlns="http://www.w3.org/2000/svg">
<path d="M14.8433 16.0732H4.55498C3.33271 16.0889 2.16659 16.5889 1.31265 17.4635C0.458696 18.3382 -0.013297 19.5159 0.000285221 20.7382V45.3352C-0.013297 46.5575 0.458696 47.7353 1.31265 48.6099C2.16659 49.4845 3.33271 49.9845 4.55498 50.0002H14.8433C16.0656 49.9845 17.2317 49.4845 18.0857 48.6099C18.9396 47.7353 19.4116 46.5575 19.398 45.3352V20.7382C19.4116 19.5159 18.9396 18.3382 18.0857 17.4635C17.2317 16.5889 16.0656 16.0889 14.8433 16.0732V16.0732ZM9.70339 18.728H7.58296V17.7696H11.8238V18.728H9.70339ZM17.7101 45.3395C17.7238 46.1119 17.4305 46.8582 16.8947 47.4147C16.3589 47.9712 15.6242 48.2925 14.8518 48.3081H4.55498C3.78296 48.2914 3.04895 47.9697 2.51335 47.4135C1.97775 46.8572 1.68412 46.1116 1.69663 45.3395V20.7424C1.68412 19.9703 1.97775 19.2247 2.51335 18.6684C3.04895 18.1122 3.78296 17.7905 4.55498 17.7738H5.89509V19.5804C5.89509 19.8054 5.98445 20.0211 6.14352 20.1802C6.30258 20.3393 6.51832 20.4286 6.74327 20.4286H12.6805C12.9054 20.4286 13.1212 20.3393 13.2802 20.1802C13.4393 20.0211 13.5287 19.8054 13.5287 19.5804V17.7696H14.8433C15.6157 17.7852 16.3504 18.1065 16.8862 18.663C17.422 19.2195 17.7153 19.9658 17.7017 20.7382L17.7101 45.3395Z" fill="#B5BD00"/>
<path d="M22.4761 8.05762H12.1963C11.5903 8.06426 10.9916 8.1902 10.4344 8.42824C9.87711 8.66628 9.37219 9.01176 8.94846 9.44495C8.52472 9.87814 8.19046 10.3906 7.96477 10.9529C7.73908 11.5153 7.62638 12.1166 7.6331 12.7226V14.1645C7.6331 14.3894 7.72246 14.6052 7.88152 14.7642C8.04058 14.9233 8.25632 15.0126 8.48127 15.0126C8.70622 15.0126 8.92196 14.9233 9.08102 14.7642C9.24008 14.6052 9.32944 14.3894 9.32944 14.1645V12.7226C9.31581 11.9502 9.60907 11.2039 10.1449 10.6474C10.6807 10.0908 11.4154 9.76956 12.1878 9.75396H13.5237V11.5606C13.5237 11.7855 13.613 12.0013 13.7721 12.1603C13.9312 12.3194 14.1469 12.4087 14.3718 12.4087H20.3091C20.534 12.4087 20.7497 12.3194 20.9088 12.1603C21.0679 12.0013 21.1572 11.7855 21.1572 11.5606V9.75396H22.4761C23.2489 9.76957 23.984 10.0907 24.5205 10.6471C25.057 11.2035 25.3512 11.9498 25.3387 12.7226V37.3196C25.3501 38.0921 25.0555 38.8377 24.5192 39.3939C23.983 39.95 23.2485 40.2715 22.4761 40.2882H21.1233C20.8983 40.2882 20.6826 40.3776 20.5235 40.5366C20.3645 40.6957 20.2751 40.9114 20.2751 41.1364C20.2751 41.3613 20.3645 41.5771 20.5235 41.7361C20.6826 41.8952 20.8983 41.9846 21.1233 41.9846H22.4761C23.0826 41.9785 23.682 41.853 24.24 41.6152C24.798 41.3775 25.3037 41.0322 25.7282 40.599C26.1527 40.1658 26.4877 39.6532 26.7142 39.0905C26.9406 38.5279 27.0539 37.9261 27.0478 37.3196V12.7226C27.0539 12.1161 26.9406 11.5143 26.7142 10.9516C26.4877 10.389 26.1527 9.87639 25.7282 9.44321C25.3037 9.01002 24.798 8.66469 24.24 8.42695C23.682 8.18921 23.0826 8.06371 22.4761 8.05762ZM19.4439 10.7124H15.203V9.75396H19.4439V10.7124Z" fill="#B5BD00"/>
<path d="M30.1321 0H19.8352C18.6111 0.0134267 17.4424 0.512334 16.5859 1.38707C15.7295 2.26181 15.2554 3.44081 15.2678 4.66495V6.28497C15.2678 6.50992 15.3572 6.72565 15.5162 6.88472C15.6753 7.04378 15.891 7.13314 16.116 7.13314C16.3409 7.13314 16.5567 7.04378 16.7157 6.88472C16.8748 6.72565 16.9642 6.50992 16.9642 6.28497V4.66495C16.9517 3.89286 17.2453 3.1472 17.7809 2.59094C18.3165 2.03469 19.0505 1.71306 19.8225 1.69635H21.1626V3.50296C21.1626 3.72791 21.252 3.94364 21.411 4.10271C21.5701 4.26177 21.7858 4.35113 22.0108 4.35113H27.948C28.173 4.35113 28.3887 4.26177 28.5478 4.10271C28.7068 3.94364 28.7962 3.72791 28.7962 3.50296V1.69635H30.1321C30.9044 1.71195 31.6391 2.03323 32.1749 2.58973C32.7108 3.14624 33.004 3.89254 32.9904 4.66495V29.262C33.0029 30.0341 32.7093 30.7797 32.1737 31.336C31.6381 31.8923 30.9041 32.2139 30.1321 32.2306H28.8598C28.6349 32.2306 28.4191 32.32 28.2601 32.479C28.101 32.6381 28.0116 32.8538 28.0116 33.0788C28.0116 33.3037 28.101 33.5195 28.2601 33.6785C28.4191 33.8376 28.6349 33.9269 28.8598 33.9269H30.1321C31.354 33.9102 32.5194 33.4098 33.3731 32.5354C34.2269 31.661 34.6992 30.484 34.6868 29.262V4.66495C34.6992 3.44299 34.2269 2.2659 33.3731 1.39152C32.5194 0.517145 31.354 0.0167688 30.1321 0V0ZM27.0998 2.65478H22.859V1.69635H27.0998V2.65478Z" fill="#B5BD00"/>
</svg>
